!!!!SEGMENT: d-bnu--pgb-2o-1660-6_radziwill-antoni-henryk--liebesschmerz.krn
!!!cenid: 18xx:4237
!!!COM: Radziwiłł, Antoni Henryk
!!!COM-rismID: pe32624
!!!CDT:
!!!CNT:
!!!OTL: Liebesschmerz
!!!PDT:
!!!AGN:
!!!YEC: Copyright 2022 Narodowy Instytut Fryderyka Chopina (https://polishscores.org)
!!!YEM: License CC-BY-4.0 (https://creativecommons.org/licenses/by/4.0)
!!!SMS-siglum: D-BNu
!!!SMS-shelfmark: PGB 2° 1660/6
!!!SMS-shelfwork: W
!!!SMS-variant:
!!!SMS-altvar:
!!!NIFC-rismSourceID: 450066108
!!!NIFC-rismChildID: 450066108
!!!NIFC-islandoraID: none
!!!URL-pdf-islandora:
!!!URL-scan: https://digitale-sammlungen.ulb.uni-bonn.de/ulbbnhans/content/pageview/6904050
!!!IIIF:
!!!ONB-nifc: UWAGA: proszę uwzględnić tylko tekst słowny znajdujący się bezpośrednio pod nutami. Tekst „Liebesschmerz” Schillera dostępny jest w internecie
!!!AIN: 2 piano 1 vox
!!!key: d
**kern	**kern	**kern	**text
*part3	*part2	*part1	*
*staff3	*staff2	*staff1	*
*I"[piano]	*I"[piano]	*I"[voce]	*
*I'[pf]	*I'[pf]	*I'[V]	*
*ICklav	*ICklav	*ICvox	*
*Ipiano	*Ipiano	*Ivox	*
*clefF4	*clefG2	*clefG2	*
*d:	*d:	*d:	*
*k[b-]	*k[b-]	*k[b-]	*
*M4/4	*M4/4	*M4/4	*
*met(c)	*met(c)	*met(c)	*
=1	=1	=1	=1
*^	*	*	*
!LO:TX:t=P:problem: all\right	!	!	!LO:TX:t=P:problem: all\right	!
2DD/ 2D	2ryy	8r	1r	.
.	.	8f/L	.	.
.	.	8e/	.	.
.	.	8d/J	.	.
2EE/ 2E	8rB	2c#X/	.	.
.	8G/L	.	.	.
.	8A/	.	.	.
.	8B-/J	.	.	.
=2	=2	=2	=2	=2
*	*2\right	*	*	*
2A/	2FF\ 2F	8d/L	1r	.
.	.	8a/	.	.
.	.	8g/	.	.
.	.	8f/J	.	.
4B-/	4GG\ 4G	8f/L	.	.
.	.	8e/	.	.
4ryy	4AA\ 4E 4G	8d/	.	.
.	.	8c#X/J	.	.
=3	=3	=3	=3	=3
4ryy	4D\ 4F	4d/	2r	.
4A/	4D\	4f/	.	.
4F/	4DD/	4d/	4r	.
!	!	!	!LO:TX:t=P:problem:Tekst bardzo nieczytelny. Opierałam się na źródle https://www.lieder.net/lieder/get_text.html?TextId=14490 	!
4ryy	4rE	4r	8a/	Weit
.	.	.	8f/	in
*v	*v	*	*	*
=4	=4	=4	=4
4DD\ 4D	8r	4.d/	Ne-
.	8F</L	.	.
4r	8A</	.	.
.	8d/J	8d/	-bel-
4DD\ 4D	8ryy	4.f/	-grau-
.	8A</L	.	.
4r	8f/	.	.
.	8d/J	8f/	-er
=5	=5	=5	=5
4AA/	8r	4.e/	fer-
.	8c#X/L	.	.
4r	8d/	.	.
.	8e/J	8e/	-ne
4AA/	8r	4.g/	liegt
.	8c#/L	.	.
4r	8g/	.	.
.	8e/J	8g/	mir
=6	=6	=6	=6
4BB-/	8r	4.f/	das
.	8d/L	.	.
4rC	8f/	.	.
.	8A</J	8d/	ver
4BB-/	8G#X</L	4.f/	gan
.	8d/	.	.
4rC	8f/	.	.
.	8G#</J	8d/	g'ne
=7	=7	=7	=7
4AA/	8A</L	4c#X/	Glück
.	8c#X/	.	.
4r	8e/	4r	.
.	8A</J	.	.
4CCn/	8B-</L	4.e/	Nur
.	8Gn</	.	.
4Cn\	8cn</	.	.
.	8B-</J	8e/	an
=8	=8	=8	=8
4DD/	8A</L	4.f/	ei-
.	8f/	.	.
4D\	8e/	.	.
.	8d/J	8f/	-nem
4EE/	8c/L	4.g/	ſchö-
.	8e/	.	.
4E\	8g/	.	.
.	8B-</J	8a/	-nen
!!LO:LB:g=original	!	!	!
=9	=9	=9	=9
4FF/	8A</L	4.a\	Ster-
.	8a/	.	.
4F\	8g/	.	.
.	8f/J	8cc\	-ne
4BB-/	8f/L	4.dd\	Weilt
.	8d/	.	.
4r	8b-/	.	.
.	8g/J	8b-\	mit
=10	=10	=10	=10
4C/	8f/L	4.a/	Lie-
.	8c/	.	.
4r	8a/	.	.
.	8f/J	8a/	-be
4C#X/	8e/L	4.b-/	noch
.	8g/	.	.
4r	8b-/	.	.
.	8e/J	8g/	der
=11	=11	=11	=11
4D\	8f/L	4f/	blick
.	8d/	.	.
4r	8a/	4r	.
.	8f/J	.	.
4E\	8g/L	4.g/	Weilt
.	8d-X/	.	.
4r	8c/	.	.
.	8g#X/J	8g#X/	mit
=12	=12	=12	=12
4F\	8a/L	4.a/	Lie-
.	8f/	.	.
4r	8c/	.	.
.	8f/J	8a/	-be
4C/	8f/L 8a	4a/	noch
.	8c/	.	.
4C/	8e/ 8g	4gn/	der
.	8B-/J	.	.
=13	=13	=13	=13
4FF/	8A/L	4f/	blick.
.	8c/	.	.
4r	8f/	4r	.
.	8c/J	.	.
8FF#X/L	8A/L	4.a/	A-
8AA/	8d/	.	.
8D/	8a/	.	.
8AA/J	8d/J	8a/	-ber
=14	=14	=14	=14
*	*	*2\right	*
8GG/L	8B-/L	2b-\	wie
8BB-/	8d/	.	.
8D/	8b-/	.	.
8BB-/J	8d/J	.	.
8AA/L	8c#X/L	4r	.
8E/	8g/	.	.
8G/	8cc#X/	4cc#X\	des
8E/J	8g/J	.	.
=15	=15	=15	=15
8BB-/L	8d/L	2dd\	Ster-
8D/	8f/	.	.
8F/	8dd/	.	.
8D/J	8f/J	.	.
8C#X/L	8e/L	4r	.
8E/	8a/	.	.
8A/	8ee/	4ee\	-nes
8E/J	8a/J	.	.
=16	=16	=16	=16
8D\L	8f/L	2ff\	Pracht
8F\	8a/	.	.
8A\	8ff/	.	.
8F\J	8a/J	.	.
2GG/ 2G	8g/L	4.ee-X\	Ist
.	8b-/	.	.
.	8ee-X/	.	.
.	8cc/J	8ee-\	es
!!LO:LB:g=original	!	!	!
=17	=17	=17	=17
2GG#X/ 2G#X	8f/L	4.dd\	nur
.	8bn/	.	.
.	8dd/	.	.
.	8b/J	8dd\	ein
2GG#X/	8f/L	4.ff\	Schein
.	8b/	.	.
.	8dd/	.	.
.	8f/J	8dd\	der
=18	=18	=18	=18
2AA/	8e/L	4cc#X\	Nacht.
.	8a/	.	.
.	8cc#X/	4r	.
.	8e/J	.	.
2D\	8f#X/L	4.ccn\	A-
.	8a/	.	.
.	8ccn/	.	.
.	8f#/J	8cc\	-ber
=19	=19	=19	=19
2GG/	8g/L	4.b-\	wie
.	8d/	.	.
.	8b-/	.	.
.	8g/J	8b-\	des
2FFn/	8a/L	4.a/	Ster-
.	8f/	.	.
.	8d/	.	.
.	8a/J	8a/	-nes
=20	=20	=20	=20
2EE/	8c#X/L	2g/	Pracht
.	8A/	.	.
.	8g/	.	.
.	8A/J	.	.
2DD/	8d/L	4.f/	ist
.	8A/	.	.
.	8f/	.	.
.	8d/J	8f/	es
=21	=21	=21	=21
2ryy	8B-X</L	4.e-X/	nur
.	8G</	.	.
.	8e-X\	.	.
.	8B-</J	8e-/	ein
4AA\	8F</L 8A< 8d<	4.d/	Schein
.	8A</	.	.
4AA\	8E</ 8c#X<	.	.
.	8A</J	8c#X/	der
=22	=22	=22	=22
*^	*	*	*
2DD\ 2D	2ryy	8F/L 8d	4d/	Nacht
.	.	8f/	.	.
.	.	8e/	4r	.
.	.	8d/J	.	.
2EE\ 2E	8rB	2c#X/	2r	.
.	8G/L	.	.	.
.	8A/	.	.	.
!!LO:TX:t=P:problem: na końcu nieczytelny tekst	!	!	!	!
.	8B-/J	.	.	.
*v	*v	*	*	*
==	==	==	==
*-	*-	*-	*-
!!!system-decoration: s1{(s2,s3)}
!!!RDF**kern: > = above
!!!RDF**kern: < = below
!!!ENC: Anastazja Marusiak
!!!END: 2022-10-18
!!!ENC: Natalia Wrzos
!!!END: 2022-10-20
